src/components/Icon/utils/svgsOptimized/character-color.svg

<svg width="24" height="24" viewBox="0 0 24 24"  xmlns="http://www.w3.org/2000/svg">
<path d="M18 6.33055C18 6.15025 17.85 6 17.67 6H6.33C6.15 6 6 6.15025 6 6.33055V8.56427C6 8.74457 6.15 8.89483 6.33 8.89483H6.86C7.04 8.89483 7.19 8.74457 7.19 8.56427V7.19199H11.24V16.808H9.37C9.19 16.808 9.04 16.9583 9.04 17.1386V17.6694C9.04 17.8498 9.19 18 9.37 18H14.6C14.78 18 14.93 17.8498 14.93 17.6694V17.1386C14.93 16.9583 14.78 16.808 14.6 16.808H12.73V7.202H16.78V8.57429C16.78 8.75459 16.93 8.90484 17.11 8.90484H17.64C17.82 8.90484 17.97 8.75459 17.97 8.57429V6.33055H18Z" />
</svg>

<?xml version="1.0" encoding="utf-8"?><svg width="24" height="24" xmlns="http://www.w3.org/2000/svg" viewBox="0 0 24 24"><path d="M18 6.33c0-.18-.15-.33-.33-.33H6.33c-.18 0-.33.15-.33.33v2.234c0 .18.15.33.33.33h.53c.18 0 .33-.15.33-.33V7.192h4.05v9.616H9.37c-.18 0-.33.15-.33.33v.531c0 .18.15.331.33.331h5.23c.18 0 .33-.15.33-.33v-.531c0-.18-.15-.331-.33-.331h-1.87V7.202h4.05v1.372c0 .18.15.33.33.33h.53c.18 0 .33-.15.33-.33V6.331H18Z"/></svg>
